img/svg/win.svg

<svg xmlns="http://www.w3.org/2000/svg" preserveAspectRatio="xMidYMid" width="44" height="42" viewBox="0 0 44 42"><defs><style>.cls-2 { fill: #d1d5d7; }</style></defs><path d="M43 41.999l-.11-.005-18-2c-.507-.057-.89-.485-.89-.995v-15.367c0-.268.108-.526.3-.714.192-.188.428-.298.72-.286 8.003.164 12.004.248 18.007.41.541.015.973.458.973 1v16.957c0 .285-.121.556-.333.746-.185.165-.422.254-.667.254zm-17-3.895l16 1.778v-14.866c-5.225-.139-9.094-.222-16-.363v13.451zm-6 .895l-.147-.01-3.934-.577c-5.674-.83-10.155-1.485-15.107-2.43-.471-.09-.812-.503-.812-.983v-12c0-.27.109-.528.303-.716.194-.189.459-.286.725-.284 2.712.077 5.254.253 7.947.44 3.335.231 6.782.471 11.046.56.544.012.979.457.979 1v14c0 .291-.127.568-.347.757-.182.158-.415.243-.653.243zm-18-4.829c4.595.857 8.872 1.483 14.209 2.262l2.791.41v-11.866c-3.866-.104-7.064-.326-10.164-.542-2.325-.161-4.539-.314-6.836-.401v10.137zm18-14.171h-19c-.553 0-1-.447-1-1v-12c0-.492.358-.911.844-.987l19-3c.295-.049.583.037.805.228.223.189.351.467.351.759v15c0 .553-.447 1-1 1zm-18-2h17v-12.83l-17 2.685v10.145zm23 2c-.262 0-.513-.267-.7-.451-.192-.187-.3-.609-.3-.878v-14.671c0-.489.353-.906.836-.986l18-3c.29-.045.587.033.81.224.225.189.354.469.354.762v17.264c0 .542-.432.985-.973 1-5.73.155-9.636.401-16.943.549l-1.064.187h-.02zm1-15.153v13.153h.043c6.88 0 10.743-.571 15.957-.71v-15.109l-16 2.666z" id="path-1" class="cls-2" fill-rule="evenodd"/></svg>

<svg xmlns="http://www.w3.org/2000/svg" xmlns:xlink="http://www.w3.org/1999/xlink" preserveAspectRatio="xMidYMid" width="44" height="42" viewBox="0 0 44 42">
  <defs>
    <style>

      .cls-2 {
        fill: #d1d5d7;
      }
    </style>
  </defs>
  <path d="M43.000,41.999 C42.963,41.999 42.927,41.997 42.890,41.994 C42.890,41.994 24.890,39.994 24.890,39.994 C24.383,39.937 24.000,39.509 24.000,38.999 C24.000,38.999 24.000,23.632 24.000,23.632 C24.000,23.364 24.108,23.106 24.300,22.918 C24.492,22.730 24.728,22.620 25.020,22.632 C33.023,22.796 37.024,22.880 43.027,23.042 C43.568,23.057 44.000,23.500 44.000,24.042 C44.000,24.042 44.000,40.999 44.000,40.999 C44.000,41.284 43.879,41.555 43.667,41.745 C43.482,41.910 43.245,41.999 43.000,41.999 ZM26.000,38.104 C26.000,38.104 42.000,39.882 42.000,39.882 C42.000,39.882 42.000,25.016 42.000,25.016 C36.775,24.877 32.906,24.794 26.000,24.653 C26.000,24.653 26.000,38.104 26.000,38.104 ZM20.000,38.999 C19.951,38.999 19.902,38.996 19.853,38.989 C19.853,38.989 15.919,38.412 15.919,38.412 C10.245,37.582 5.764,36.927 0.812,35.982 C0.341,35.892 -0.000,35.479 -0.000,34.999 C-0.000,34.999 -0.000,22.999 -0.000,22.999 C-0.000,22.729 0.109,22.471 0.303,22.283 C0.497,22.094 0.762,21.997 1.028,21.999 C3.740,22.076 6.282,22.252 8.975,22.439 C12.310,22.670 15.757,22.910 20.021,22.999 C20.565,23.011 21.000,23.456 21.000,23.999 C21.000,23.999 21.000,37.999 21.000,37.999 C21.000,38.290 20.873,38.567 20.653,38.756 C20.471,38.914 20.238,38.999 20.000,38.999 ZM2.000,34.170 C6.595,35.027 10.872,35.653 16.209,36.432 C16.209,36.432 19.000,36.842 19.000,36.842 C19.000,36.842 19.000,24.976 19.000,24.976 C15.134,24.872 11.936,24.650 8.836,24.434 C6.511,24.273 4.297,24.120 2.000,24.033 C2.000,24.033 2.000,34.170 2.000,34.170 ZM20.000,19.999 C20.000,19.999 1.000,19.999 1.000,19.999 C0.447,19.999 -0.000,19.552 -0.000,18.999 C-0.000,18.999 -0.000,6.999 -0.000,6.999 C-0.000,6.507 0.358,6.088 0.844,6.012 C0.844,6.012 19.844,3.012 19.844,3.012 C20.139,2.963 20.427,3.049 20.649,3.240 C20.872,3.429 21.000,3.707 21.000,3.999 C21.000,3.999 21.000,18.999 21.000,18.999 C21.000,19.552 20.553,19.999 20.000,19.999 ZM2.000,17.999 C2.000,17.999 19.000,17.999 19.000,17.999 C19.000,17.999 19.000,5.169 19.000,5.169 C19.000,5.169 2.000,7.854 2.000,7.854 C2.000,7.854 2.000,17.999 2.000,17.999 ZM25.000,19.999 C24.738,19.999 24.487,19.732 24.300,19.548 C24.108,19.361 24.000,18.939 24.000,18.670 C24.000,18.670 24.000,3.999 24.000,3.999 C24.000,3.510 24.353,3.093 24.836,3.013 C24.836,3.013 42.836,0.013 42.836,0.013 C43.126,-0.032 43.423,0.046 43.646,0.237 C43.871,0.426 44.000,0.706 44.000,0.999 C44.000,0.999 44.000,18.263 44.000,18.263 C44.000,18.805 43.568,19.248 43.027,19.263 C37.297,19.418 33.391,19.664 26.084,19.812 C26.084,19.812 25.020,19.999 25.020,19.999 C25.014,19.999 25.007,19.999 25.000,19.999 ZM26.000,4.846 C26.000,4.846 26.000,17.999 26.000,17.999 C26.000,17.999 26.043,17.999 26.043,17.999 C32.923,17.999 36.786,17.428 42.000,17.289 C42.000,17.289 42.000,2.180 42.000,2.180 C42.000,2.180 26.000,4.846 26.000,4.846 Z" id="path-1" class="cls-2" fill-rule="evenodd"/>
</svg>
